SF_Symbols/person.crop.rectangle.stack.svg

<?xml version="1.0" encoding="UTF-8"?>
<svg xmlns="http://www.w3.org/2000/svg" xmlns:xlink="http://www.w3.org/1999/xlink" width="24" height="24" viewBox="0 0 24 24" version="1.1">
<g id="surface1">
<path style=" stroke:none;fill-rule:nonzero;fill:rgb(100%,100%,100%);fill-opacity:1;" d="M 4.355469 24 L 19.636719 24 C 20.71875 24 21.535156 23.730469 22.082031 23.1875 C 22.632812 22.644531 22.90625 21.839844 22.90625 20.769531 L 22.90625 10.074219 C 22.90625 9.003906 22.632812 8.199219 22.082031 7.65625 C 21.535156 7.113281 20.71875 6.84375 19.636719 6.84375 L 4.355469 6.84375 C 3.265625 6.84375 2.445312 7.113281 1.894531 7.65625 C 1.355469 8.191406 1.082031 8.996094 1.082031 10.074219 L 1.082031 20.769531 C 1.082031 21.847656 1.355469 22.652344 1.894531 23.1875 C 2.445312 23.730469 3.265625 24 4.355469 24 Z M 4.375 22.324219 C 3.855469 22.324219 3.453125 22.183594 3.175781 21.90625 C 2.898438 21.628906 2.761719 21.21875 2.761719 20.675781 L 2.761719 10.167969 C 2.761719 9.625 2.898438 9.214844 3.175781 8.9375 C 3.453125 8.660156 3.855469 8.519531 4.375 8.519531 L 19.605469 8.519531 C 20.117188 8.519531 20.515625 8.660156 20.800781 8.9375 C 21.085938 9.214844 21.230469 9.625 21.230469 10.167969 L 21.230469 20.675781 C 21.230469 21.21875 21.085938 21.628906 20.800781 21.90625 C 20.515625 22.183594 20.117188 22.324219 19.605469 22.324219 Z M 3.28125 5.167969 L 20.71875 5.167969 C 20.636719 4.695312 20.46875 4.332031 20.21875 4.082031 C 19.976562 3.828125 19.59375 3.699219 19.074219 3.699219 L 4.925781 3.699219 C 4.40625 3.699219 4.019531 3.828125 3.769531 4.082031 C 3.519531 4.332031 3.359375 4.695312 3.28125 5.167969 Z M 5.425781 2.28125 L 18.574219 2.28125 C 18.539062 1.835938 18.390625 1.503906 18.136719 1.28125 C 17.886719 1.050781 17.519531 0.9375 17.042969 0.9375 L 6.949219 0.9375 C 6.46875 0.9375 6.101562 1.050781 5.84375 1.28125 C 5.59375 1.503906 5.453125 1.835938 5.425781 2.28125 Z M 5.5 23.15625 L 18.511719 23.15625 C 18.371094 22.488281 18.109375 21.878906 17.71875 21.324219 C 17.335938 20.765625 16.859375 20.285156 16.28125 19.875 C 15.703125 19.457031 15.050781 19.140625 14.324219 18.917969 C 13.601562 18.6875 12.828125 18.574219 12 18.574219 C 11.179688 18.574219 10.40625 18.6875 9.675781 18.917969 C 8.953125 19.140625 8.304688 19.457031 7.730469 19.875 C 7.152344 20.285156 6.671875 20.765625 6.28125 21.324219 C 5.898438 21.878906 5.640625 22.488281 5.5 23.15625 Z M 12 17 C 12.605469 17.007812 13.148438 16.855469 13.636719 16.542969 C 14.128906 16.230469 14.515625 15.804688 14.800781 15.269531 C 15.09375 14.734375 15.238281 14.132812 15.238281 13.457031 C 15.238281 12.828125 15.09375 12.246094 14.800781 11.71875 C 14.515625 11.191406 14.128906 10.769531 13.636719 10.457031 C 13.148438 10.144531 12.605469 9.988281 12 9.988281 C 11.402344 9.988281 10.859375 10.144531 10.363281 10.457031 C 9.878906 10.769531 9.488281 11.191406 9.199219 11.71875 C 8.914062 12.246094 8.769531 12.828125 8.769531 13.457031 C 8.777344 14.132812 8.921875 14.734375 9.207031 15.269531 C 9.492188 15.796875 9.878906 16.21875 10.363281 16.53125 C 10.859375 16.835938 11.402344 16.992188 12 17 Z M 12 17 "/>
</g>
</svg>

<svg xmlns="http://www.w3.org/2000/svg" width="24" height="24"><path style="stroke:none;fill-rule:nonzero;fill:#fff;fill-opacity:1" d="M4.355 24h15.282c1.082 0 1.898-.27 2.445-.813.55-.542.824-1.347.824-2.417V10.074c0-1.07-.273-1.875-.824-2.418-.547-.543-1.363-.812-2.445-.812H4.355c-1.09 0-1.91.27-2.46.812-.54.535-.813 1.34-.813 2.418V20.77c0 1.078.273 1.882.813 2.418.55.542 1.37.812 2.46.812Zm.02-1.676c-.52 0-.922-.14-1.2-.418-.277-.277-.413-.687-.413-1.23V10.168c0-.543.136-.953.414-1.23.277-.278.68-.418 1.199-.418h15.23c.512 0 .91.14 1.196.418.285.277.43.687.43 1.23v10.508c0 .543-.145.953-.43 1.23-.285.278-.684.418-1.196.418ZM3.281 5.168H20.72c-.082-.473-.25-.836-.5-1.086-.242-.254-.625-.383-1.145-.383H4.926c-.52 0-.906.13-1.156.383-.25.25-.41.613-.489 1.086Zm2.145-2.887h13.148c-.035-.445-.183-.777-.437-1-.25-.23-.617-.343-1.094-.343H6.949c-.48 0-.847.113-1.105.343-.25.223-.39.555-.418 1ZM5.5 23.156h13.012a4.92 4.92 0 0 0-.793-1.832 5.76 5.76 0 0 0-1.438-1.449 6.56 6.56 0 0 0-1.957-.957A7.565 7.565 0 0 0 12 18.574c-.82 0-1.594.113-2.324.344a6.497 6.497 0 0 0-1.946.957c-.578.41-1.058.89-1.449 1.45a5.055 5.055 0 0 0-.781 1.831ZM12 17a2.893 2.893 0 0 0 1.637-.457A3.349 3.349 0 0 0 14.8 15.27c.293-.536.437-1.137.437-1.813 0-.629-.144-1.21-.437-1.738a3.378 3.378 0 0 0-1.164-1.262A2.967 2.967 0 0 0 12 9.988c-.598 0-1.14.157-1.637.469-.488.316-.886.75-1.164 1.262a3.648 3.648 0 0 0-.43 1.738c.008.676.153 1.277.438 1.813.285.527.672.949 1.156 1.261.496.305 1.04.461 1.637.469Zm0 0"/></svg>
